PortableApps/LibreOfficePortable/App/libreoffice/help/media/icon-themes/cmd/lc_formattedfield.svg

<svg viewBox="0 0 24 24" xmlns="http://www.w3.org/2000/svg"><path d="m3 6h18v14h-18z" fill="#fff"/><path d="m2 3v1 2 14c0 .554.446 1 1 1h18c.554 0 1-.446 1-1v-14-2-1h-1-18zm1 3h18v14h-18zm13.5 1a.5.5 0 0 0 -.386719.1835938l-8.9960935 10.9941402a.5.5 0 1 0 .7828125.632813l9-10.9941408a.5.5 0 0 0 -.4-.8164062zm-8.5 0a2 2 0 0 0 -2 2 2 2 0 0 0 2 2 2 2 0 0 0 2-2 2 2 0 0 0 -2-2zm0 1a1 1 0 0 1 1 1 1 1 0 0 1 -1 1 1 1 0 0 1 -1-1 1 1 0 0 1 1-1zm8 7a2 2 0 0 0 -2 2 2 2 0 0 0 2 2 2 2 0 0 0 2-2 2 2 0 0 0 -2-2zm0 1a1 1 0 0 1 1 1 1 1 0 0 1 -1 1 1 1 0 0 1 -1-1 1 1 0 0 1 1-1z" fill="#808080"/><path d="m2 3h20v3h-20z" fill="#4d82b8"/></svg>

<svg viewBox="0 0 24 24" xmlns="http://www.w3.org/2000/svg">
  <path
     style="fill:#ffffff"
     d="M 3,6 H 21 V 20 H 3 Z"
     />
  <path
     style="fill:#808080"
     d="M 2 3 L 2 4 L 2 6 L 2 20 C 2 20.554 2.446 21 3 21 L 21 21 C 21.554 21 22 20.554 22 20 L 22 6 L 22 4 L 22 3 L 21 3 L 3 3 L 2 3 z M 3 6 L 21 6 L 21 20 L 3 20 L 3 6 z M 16.5 7 A 0.5 0.5 0 0 0 16.113281 7.1835938 L 7.1171875 18.177734 A 0.5 0.5 0 1 0 7.9 18.810547 L 16.9 7.8164062 A 0.5 0.5 0 0 0 16.5 7 z M 8 7 A 2 2 0 0 0 6 9 A 2 2 0 0 0 8 11 A 2 2 0 0 0 10 9 A 2 2 0 0 0 8 7 z M 8 8 A 1 1 0 0 1 9 9 A 1 1 0 0 1 8 10 A 1 1 0 0 1 7 9 A 1 1 0 0 1 8 8 z M 16 15 A 2 2 0 0 0 14 17 A 2 2 0 0 0 16 19 A 2 2 0 0 0 18 17 A 2 2 0 0 0 16 15 z M 16 16 A 1 1 0 0 1 17 17 A 1 1 0 0 1 16 18 A 1 1 0 0 1 15 17 A 1 1 0 0 1 16 16 z "
     />
  <path
     style="fill:#4d82b8"
     d="M 2,3 H 22 V 6 H 2 Z"
     />
</svg>
